build/img/blog/form-button.svg

<svg width="125" height="125" viewBox="0 0 125 125" fill="none" xmlns="http://www.w3.org/2000/svg">
<circle cx="62.5" cy="62.5" r="62.5" transform="rotate(-90 62.5 62.5)" fill="#E9CF49"/>
<path d="M61.0712 18.4858C60.8214 20.6651 62.3783 22.4 65.101 22.902C67.8928 23.4167 69.974 22.3079 70.3995 20.0002C70.7246 18.2369 69.8873 17.0101 67.3908 15.9599L66.0637 15.4024C64.4295 14.7168 63.8882 13.9199 64.0699 12.9345C64.3042 11.664 65.6458 11.1249 67.2016 11.4117C68.8266 11.7113 69.7524 12.749 69.6389 14.1401L71.1947 14.427C71.516 12.2966 69.9923 10.4785 67.503 10.0195C64.9187 9.54297 62.8374 10.6517 62.4581 12.7089C62.1314 14.4808 63.0031 15.8122 65.4006 16.8174L66.7278 17.3749C68.3863 18.0739 68.9503 18.8929 68.7575 19.9387C68.5312 21.1661 67.1397 21.83 65.4456 21.5177C63.6564 21.1878 62.5615 20.1458 62.6271 18.7726L61.0712 18.4858Z" fill="#1F1F1F"/>
<path d="M79.7223 25.9794L73.8387 23.7969L75.3548 19.7096L80.9336 21.7791L81.4227 20.4606L75.8439 18.3912L77.2592 14.5759L83.1428 16.7584L83.638 15.4235L76.2711 12.6907L71.8602 24.5816L79.2271 27.3143L79.7223 25.9794Z" fill="#1F1F1F"/>
<path d="M82.0336 29.3264L87.7231 21.1967L87.7879 21.242L87.787 33.3529L89.0472 34.2348L96.3191 23.844L95.0373 22.947L89.3276 31.1055L89.2628 31.0602L89.2839 18.9205L88.0237 18.0386L80.7518 28.4294L82.0336 29.3264Z" fill="#1F1F1F"/>
<path d="M100.525 27.9942L90.8756 36.2243L93.6418 39.4676C96.0886 42.3364 99.3113 42.4987 102.354 39.9036C105.39 37.3143 105.732 34.0996 103.291 31.2375L100.525 27.9942ZM100.469 30.1219L102.14 32.0812C104.01 34.2746 103.705 36.6257 101.291 38.6846C98.8972 40.7265 96.5217 40.6501 94.6567 38.4634L92.9856 36.504L100.469 30.1219Z" fill="#1F1F1F"/>
</svg>

<svg width="125" height="125" fill="none" xmlns="http://www.w3.org/2000/svg"><circle cx="62.5" cy="62.5" r="62.5" transform="rotate(-90 62.5 62.5)" fill="#E9CF49"/><path d="M61.071 18.486c-.25 2.18 1.307 3.914 4.03 4.416 2.792.515 4.873-.594 5.299-2.902.325-1.763-.513-2.99-3.01-4.04l-1.326-.558c-1.634-.685-2.176-1.482-1.994-2.467.234-1.271 1.576-1.81 3.132-1.523 1.625.3 2.55 1.337 2.437 2.728l1.556.287c.321-2.13-1.203-3.948-3.692-4.407-2.584-.477-4.666.632-5.045 2.689-.327 1.772.545 3.103 2.943 4.108l1.327.558c1.658.699 2.222 1.518 2.03 2.564-.227 1.227-1.618 1.891-3.312 1.579-1.79-.33-2.884-1.372-2.819-2.745l-1.556-.287zM79.722 25.98l-5.883-2.183 1.516-4.087 5.579 2.07.489-1.32-5.58-2.069 1.416-3.815 5.884 2.182.495-1.334-7.367-2.733-4.41 11.89 7.366 2.733.495-1.335zM82.034 29.326l5.69-8.13.064.046-.001 12.11 1.26.883 7.272-10.391-1.282-.897-5.71 8.159-.064-.046.02-12.14-1.26-.881-7.271 10.39 1.282.897zM100.525 27.994l-9.65 8.23 2.767 3.244c2.447 2.868 5.67 3.03 8.712.436 3.036-2.59 3.378-5.804.937-8.667l-2.766-3.243zm-.056 2.128l1.671 1.96c1.87 2.193 1.565 4.544-.849 6.603-2.394 2.041-4.77 1.965-6.634-.222l-1.671-1.959 7.483-6.382z" fill="#1F1F1F"/></svg>
